img/icons/svg/_atomichhub.svg

<svg width="648" height="648" viewBox="0 0 648 648" fill="none" xmlns="http://www.w3.org/2000/svg">
<path d="M430.991 608.644C424.636 616.905 417.067 623.965 408.47 628.033C404.167 630.068 399.622 631.144 395.084 631.735C390.466 631.896 385.883 631.887 381.34 630.643C372.256 628.59 363.453 624.114 355.398 618.198C347.309 612.327 339.79 605.283 332.86 597.588C325.941 589.873 319.405 581.69 313.317 573.095C309.799 568.028 306.409 562.862 303.098 557.632C295.778 562.532 288.325 567.268 280.711 571.791C291.415 586.721 303.217 600.992 316.833 613.814C325.251 621.713 334.33 629.134 344.571 635.19C354.737 641.24 366.208 646.084 378.662 647.542C384.834 648.451 391.259 647.894 397.436 646.864C403.59 645.41 409.532 643.186 414.814 639.925C425.352 633.365 433.268 624.011 438.939 614.012C450.256 593.834 455.149 571.711 457.691 549.817C454.546 560.405 451.113 570.853 446.705 580.79C442.411 590.747 437.306 600.303 430.991 608.644Z" fill="black"/>
<path d="M115.398 550.009C112.3 546.29 110.134 541.489 108.358 536.362L107.171 532.399L106.327 528.193L105.992 526.516L105.903 526.084L105.649 523.888L105.111 519.491C104.772 513.481 104.627 507.338 105.178 501.063C106.098 488.533 108.57 475.783 111.838 463.133C118.506 437.817 128.493 412.95 140.057 388.82C151.569 364.657 164.782 341.259 179.161 318.464C179.419 319.771 179.674 321.075 179.937 322.376C181.102 328.105 182.315 333.814 183.591 339.516L115.483 497.064C115.424 497.688 115.339 498.31 115.288 498.932H232.229L234.819 492.133C234.823 492.151 234.832 492.167 234.839 492.18C234.847 492.171 234.856 492.16 234.869 492.151C236.468 495.55 238.044 498.954 239.714 502.322C243.609 510.249 247.727 518.073 251.977 525.823C243.98 530.761 235.87 535.442 227.651 539.817C216.257 545.802 204.611 551.13 192.81 555.341C181.03 559.455 169.038 562.812 157.466 563.755C154.596 563.94 151.697 564.214 148.933 564.067C146.084 564.159 143.448 563.746 140.743 563.506C137.305 562.948 134.033 562.112 130.951 561.007C129.357 560.441 127.797 559.817 126.331 559.07C124.025 557.801 121.901 556.308 119.93 554.621C118.307 553.227 116.785 551.705 115.398 550.009ZM353.699 354.299H287.084L320.39 267.127L353.699 354.299ZM199.576 206.405C206.163 206.469 212.745 206.621 219.316 206.855C223.751 207.049 228.18 207.296 232.61 207.559V207.575C235.154 207.731 237.764 207.905 240.398 208.09C242.554 208.244 244.742 208.407 246.933 208.578C247.599 208.629 248.265 208.683 248.93 208.734C252.706 209.033 256.513 209.367 260.315 209.719C263.93 210.058 267.543 210.393 271.154 210.792C275.723 211.28 280.226 211.806 284.562 212.368C306.252 215.078 327.871 218.604 349.312 223.047C370.782 227.351 392.079 232.489 413.101 238.503C414.011 238.758 414.92 239.032 415.83 239.288C419.269 240.262 422.692 241.27 426.108 242.302C427.876 242.834 429.644 243.369 431.412 243.918C433.349 244.522 435.287 245.148 437.22 245.77C439.327 246.452 441.432 247.13 443.531 247.828C446.105 248.681 448.673 249.537 451.235 250.418C459.291 253.182 467.317 256.051 475.268 259.075C482.242 261.726 489.135 264.55 495.988 267.457C484.378 287.616 471.703 307.237 458.055 326.188C457.091 327.526 456.086 328.832 455.116 330.165L424.845 260.148C419.776 258.596 414.69 257.083 409.576 255.66C388.552 249.649 367.255 244.511 345.79 240.202C324.349 235.762 302.73 232.237 281.04 229.527C266.915 227.692 248.192 225.858 233.185 224.775L224.743 244.308C224.798 244.299 224.845 244.288 224.9 244.279C224.919 244.502 224.937 244.734 224.964 244.961C227.15 266.324 230.291 287.639 234.259 308.806C238.099 330.002 242.838 351.064 248.26 371.922C253.579 392.815 259.833 413.452 266.686 433.848C267.217 435.408 267.781 436.955 268.337 438.502H361.1C358.548 440.989 356.022 443.506 353.445 445.962C334.244 464.181 314.231 481.512 293.24 497.334C287.796 501.509 282.279 505.559 276.691 509.498C269.752 495.147 263.368 480.482 257.481 465.589C255.318 460.133 253.238 454.643 251.199 449.139L252.596 445.468C251.778 445.751 250.961 446.023 250.147 446.301C248.058 440.591 246.019 434.86 244.068 429.097C240.634 418.895 237.358 408.637 234.272 398.321C231.191 388.002 228.294 377.619 225.636 367.172C222.929 356.744 220.39 346.263 218.044 335.742C215.701 325.218 213.557 314.657 211.634 304.056C210.325 297.061 209.139 290.039 208.011 283.018C207.706 281.119 207.409 279.224 207.12 277.325C207.096 277.178 207.074 277.033 207.054 276.888C206.825 275.408 206.573 273.939 206.357 272.459C206.344 272.374 206.333 272.287 206.32 272.207C206.294 272.035 206.274 271.864 206.252 271.696C205.502 266.543 204.798 261.382 204.154 256.22C203.882 253.995 203.654 251.766 203.399 249.542C203.039 246.434 202.657 243.323 202.339 240.206C202.314 239.979 202.297 239.752 202.276 239.524C201.093 228.499 200.19 217.448 199.576 206.405ZM202.577 112.768C204.12 102.432 206.007 92.1585 208.773 82.3194C211.463 72.4692 214.835 62.9221 219.237 54.2711C223.656 45.6825 229.002 37.8718 235.54 32.2813C242.126 26.8892 249.68 23.51 258.171 23.0999C266.644 22.6318 275.783 25.1573 284.608 29.3011C293.456 33.5363 301.921 39.4322 309.949 46.0726C326.09 59.398 340.233 75.8551 353.317 93.1215C359.438 101.186 365.238 109.552 370.841 118.074C361.325 125.155 352.089 132.589 343.145 140.317C353.119 133.956 363.153 127.75 373.385 121.946C378.973 130.416 384.267 139.096 389.531 147.845C385.945 138.265 381.893 128.869 377.65 119.527C377.714 119.494 377.778 119.456 377.84 119.42C389.557 112.811 401.485 106.65 413.685 101.262C425.881 95.8878 438.236 91.0306 450.809 87.3482C463.365 83.7683 476.167 81.1402 488.643 80.904C491.729 80.8282 494.806 80.8928 497.824 81.1246C506.921 81.8179 515.522 84.0225 522.406 88.4115C527.017 91.2692 530.791 95.0385 533.876 99.325C536.081 102.446 537.712 106.034 539.019 109.819C539.526 111.293 539.998 112.789 540.412 114.311L541.371 118.49C541.611 119.922 541.761 121.402 541.968 122.846L542.273 125.019L542.387 127.266L542.658 131.749C542.652 137.837 542.409 143.987 541.505 150.217C539.87 162.664 536.674 175.16 532.739 187.489C527.076 204.965 519.738 222.068 511.435 238.775C503.462 235.057 495.412 231.533 487.325 228.147C473.136 222.262 458.736 216.988 444.218 212.145C444.214 212.145 444.21 212.145 444.21 212.14C441.102 211.104 437.996 210.092 434.883 209.089C430.786 207.782 426.69 206.474 422.575 205.239C414.49 202.856 406.36 200.649 398.209 198.527L378.192 152.214H264.554L254.672 175.071C253.91 175.02 253.152 174.993 252.389 174.942C247.815 174.658 243.237 174.411 238.659 174.217C232.496 173.956 226.324 173.771 220.143 173.702C212.983 173.626 205.811 173.711 198.639 173.878C198.575 153.302 199.728 132.785 202.577 112.768ZM377.158 471.505C382.308 466.581 387.386 461.586 392.405 456.533C406.889 441.955 420.84 426.855 434.253 411.296C446.786 396.477 458.89 381.264 470.436 365.611C475.345 358.969 480.181 352.259 484.861 345.432C499.078 324.521 512.458 302.959 524.257 280.41C525.408 278.216 526.561 276.025 527.678 273.814C531.269 266.681 534.741 259.479 538.056 252.183C540.544 246.713 542.956 241.196 545.211 235.599C550.426 222.519 555.088 209.144 558.848 195.38C562.62 181.624 565.406 167.436 566.533 152.771C567.17 145.462 567.101 137.961 566.66 130.443L566.017 124.745L565.673 121.908L565.104 119.048C564.71 117.144 564.37 115.249 563.914 113.35L562.23 107.675C561.37 105.172 560.402 102.673 559.314 100.208C557.145 95.2993 554.464 90.538 550.988 86.2203C545.775 79.8118 539.336 74.3082 532.118 70.6258C524.918 66.8787 517.217 64.7277 509.68 63.7959C502.122 62.8486 494.683 62.9355 487.468 63.738C473.017 65.3451 459.483 69.5023 446.511 74.4843C433.587 79.6067 421.171 85.6385 409.354 92.591C397.598 99.3896 386.288 106.81 375.369 114.723C370.987 105.6 366.34 96.5899 361.316 87.7383C350.275 68.3922 337.336 49.9333 321.428 33.3692C313.365 25.1952 304.409 17.6208 294.067 11.3839C283.707 5.29633 271.608 0.559561 258.197 0.0624796C244.813 -0.615156 230.961 4.27318 220.229 12.1039C209.503 20.0505 201.598 30.2975 195.43 40.8588C183.175 62.1553 176.753 84.9475 172.446 107.595C168.093 130.222 166.368 152.972 165.77 175.61C160.967 176.014 156.169 176.442 151.37 176.99C128.467 179.645 105.568 183.829 83.1273 191.051C75.4464 193.507 67.8461 196.392 60.3642 199.744H60.3559C59.0163 200.344 57.6852 200.966 56.3501 201.592C54.256 202.578 52.1662 203.59 50.0933 204.671C48.758 205.377 47.4228 206.097 46.0959 206.844C44.7691 207.588 43.4466 208.355 42.1326 209.149C35.5706 213.105 29.2208 217.666 23.3837 223.103C22.2181 224.191 21.0692 225.31 19.9417 226.471L16.6184 229.991C15.5544 231.221 14.5709 232.563 13.5536 233.849C11.451 236.348 9.75545 239.279 8.0174 242.126C7.85208 242.371 7.73349 242.654 7.58096 242.915C6.89841 244.107 6.33463 245.393 5.72846 246.635C5.38936 247.42 5.01633 248.175 4.66025 248.942C4.30418 249.709 3.96931 250.485 3.7065 251.3C3.1851 252.932 2.6425 254.553 2.15926 256.187C1.67603 257.82 1.25213 259.47 0.980848 261.169C-0.273879 267.889 -0.307803 274.813 0.781605 281.353C1.0529 282.991 1.37931 284.607 1.7608 286.199C2.04905 287.393 2.36274 288.577 2.71458 289.738C3.74888 293.236 5.05023 296.602 6.56354 299.798C8.58125 304.078 10.8999 308.095 13.4392 311.891C14.2828 313.161 15.1559 314.399 16.0462 315.618C17.8307 318.052 19.6999 320.397 21.6331 322.66C23.5702 324.924 25.5668 327.1 27.6057 329.215C35.7742 337.677 44.6801 345.093 54.061 351.664C56.4008 353.318 58.7578 354.93 61.1357 356.503C65.8918 359.646 70.7328 362.629 75.6415 365.458C78.0959 366.873 80.5671 368.257 83.0511 369.599C90.5116 373.634 98.1121 377.354 105.806 380.8C108.37 381.953 110.948 383.076 113.533 384.168C108.807 381.117 104.114 378.034 99.4814 374.88C94.8524 371.73 90.2828 368.502 85.815 365.15C81.3132 361.853 76.8961 358.463 72.5853 354.965C68.2784 351.461 64.0775 347.848 60.0166 344.11C57.9989 342.228 56.0025 340.334 54.0398 338.415C50.1145 334.572 46.3249 330.628 42.7683 326.54C40.9924 324.49 39.2755 322.408 37.6265 320.277C35.9777 318.168 34.388 316.008 32.8873 313.812C32.1328 312.716 31.4039 311.61 30.6959 310.491C28.5765 307.147 26.6689 303.721 25.0411 300.242C23.9559 297.917 22.9979 295.572 22.1797 293.202C21.7686 292.023 21.3915 290.844 21.0523 289.66C20.0392 286.112 19.3863 282.563 19.1405 279.068C18.9794 276.741 19.0005 274.44 19.221 272.185C19.4372 269.933 19.8569 267.722 20.4884 265.58C20.7895 264.503 21.1371 263.44 21.527 262.399C22.1755 260.676 22.9768 259.006 23.8627 257.375C25.1217 255.059 26.5799 252.825 28.2584 250.708C30.4075 247.999 32.8662 245.458 35.575 243.091C42.7939 236.78 51.5854 231.642 60.9832 227.487C70.3936 223.321 80.4399 220.154 90.6643 217.434C115.043 211.309 140.383 208.197 166.003 206.989C166.47 220.921 167.436 234.805 168.814 248.635V248.641C169.844 259 171.09 269.325 172.561 279.61C172.612 279.944 172.667 280.274 172.713 280.604C173.396 285.369 174.121 290.129 174.888 294.874C175.494 298.612 176.155 302.337 176.813 306.057C157.97 329.605 140.599 354.47 125.14 380.736C111.291 404.609 99.0066 429.668 90.1133 456.551C85.658 469.985 82.1312 483.912 80.2534 498.486C79.2318 505.753 78.9309 513.263 78.9818 520.861C79.4015 528.536 80.0246 536.329 82.3305 544.204C84.5857 552.013 87.7479 559.979 92.9577 567.061C94.3523 568.985 95.8825 570.815 97.4889 572.585C101.792 577.297 106.785 581.416 112.228 584.677C114.462 585.981 116.751 587.1 119.069 588.103C124.584 590.477 130.286 592.085 135.928 593.199C139.908 593.779 143.939 594.429 147.839 594.499C151.811 594.808 155.643 594.628 159.496 594.499C174.85 593.723 189.203 590.25 202.941 585.796C208.092 584.104 213.127 582.214 218.113 580.233C226.407 576.936 234.517 573.322 242.432 569.422C251.553 564.814 260.456 559.901 269.17 554.732C277.132 550.009 284.924 545.056 292.57 539.918C322.843 519.593 350.787 496.266 377.158 471.505Z" fill="black"/>
<path d="M646.578 361.878C646.238 360.326 645.853 358.799 645.429 357.295C645.284 356.789 645.123 356.292 644.971 355.795C644.669 354.809 644.369 353.82 644.034 352.85C643.833 352.259 643.613 351.68 643.397 351.096C643.084 350.235 642.758 349.377 642.418 348.532C642.169 347.919 641.914 347.32 641.656 346.716C641.316 345.913 640.961 345.126 640.596 344.342C640.316 343.733 640.031 343.125 639.74 342.518C639.37 341.769 638.984 341.023 638.598 340.278C638.285 339.676 637.981 339.072 637.659 338.482C637.26 337.748 636.844 337.033 636.429 336.313C636.099 335.737 635.781 335.156 635.438 334.585C634.781 333.484 634.102 332.398 633.412 331.322C633.357 331.237 633.306 331.146 633.246 331.061C633.246 331.065 633.242 331.065 633.242 331.07C632.347 329.677 631.435 328.301 630.498 326.959C623.347 316.786 615.112 307.85 606.35 299.738C589.915 284.482 571.827 271.888 553.1 260.776C549.055 270.199 544.682 279.44 540.123 288.57C547.814 292.748 555.308 297.201 562.62 301.865C571.699 307.562 580.344 313.803 588.441 320.511C596.497 327.243 604.086 334.422 610.419 342.28C611.682 343.84 612.877 345.443 614.025 347.059C616.289 350.24 618.319 353.519 620.063 356.853C620.105 356.94 620.151 357.021 620.193 357.108C620.995 358.655 621.72 360.219 622.386 361.793C622.507 362.078 622.622 362.361 622.737 362.649C623.374 364.218 623.967 365.796 624.458 367.381C624.78 368.48 625.064 369.577 625.302 370.674C625.776 372.865 626.069 375.067 626.184 377.267C626.244 378.368 626.255 379.465 626.222 380.56C626.153 382.753 625.909 384.94 625.481 387.104C625.051 389.273 624.44 391.426 623.649 393.553C622.838 395.67 621.835 397.743 620.651 399.767C618.299 403.813 615.26 407.656 611.759 411.234C610.884 412.125 609.978 413.006 609.05 413.862C608.122 414.724 607.168 415.565 606.189 416.392C604.238 418.055 602.195 419.653 600.079 421.18C596.1 424.046 591.84 426.659 587.427 429.084C585.956 429.891 584.469 430.678 582.967 431.447C581.788 432.051 580.627 432.68 579.436 433.259C578.092 433.906 576.718 434.494 575.354 435.111C569.305 437.838 563.096 440.294 556.754 442.523C554.169 443.435 551.561 444.315 548.94 445.171C545.601 446.261 542.222 447.26 538.832 448.227C534.245 449.531 529.625 450.753 524.967 451.867C522.267 452.518 519.558 453.131 516.84 453.729C514.314 454.306 511.779 454.852 509.244 455.378L479.271 386.045C468.43 400.574 457.142 414.749 445.455 428.565C431.013 445.318 415.931 461.508 400.248 477.12L408.56 498.936H528.068L510.972 459.386C524.418 458.61 537.868 457.092 551.259 454.602C559.675 453.111 568.016 451.078 576.286 448.537C579.042 447.688 581.788 446.787 584.532 445.829C585.897 445.334 587.257 444.832 588.617 444.306C592.704 442.742 596.762 441.032 600.758 439.11C606.094 436.543 611.325 433.611 616.38 430.172C626.374 423.284 635.852 414.136 641.931 401.967C647.98 389.852 649.463 375 646.578 361.878Z" fill="black"/>
</svg>

<svg width="648" height="648" fill="none" xmlns="http://www.w3.org/2000/svg"><path d="M430.991 608.644c-6.355 8.261-13.924 15.321-22.521 19.389-4.303 2.035-8.848 3.111-13.386 3.702-4.618.161-9.201.152-13.744-1.092-9.084-2.053-17.887-6.529-25.942-12.445-8.089-5.871-15.608-12.915-22.538-20.61a273.313 273.313 0 01-19.543-24.493c-3.518-5.067-6.908-10.233-10.219-15.463a491.678 491.678 0 01-22.387 14.159c10.704 14.93 22.506 29.201 36.122 42.023 8.418 7.899 17.497 15.32 27.738 21.376 10.166 6.05 21.637 10.894 34.091 12.352 6.172.909 12.597.352 18.774-.678 6.154-1.454 12.096-3.678 17.378-6.939 10.538-6.56 18.454-15.914 24.125-25.913 11.317-20.178 16.21-42.301 18.752-64.195-3.145 10.588-6.578 21.036-10.986 30.973-4.294 9.957-9.399 19.513-15.714 27.854zm-315.593-58.635c-3.098-3.719-5.264-8.52-7.04-13.647l-1.187-3.963-.844-4.206-.335-1.677-.089-.432-.254-2.196-.538-4.397c-.339-6.01-.484-12.153.067-18.428.92-12.53 3.392-25.28 6.66-37.93 6.668-25.316 16.655-50.183 28.219-74.313 11.512-24.163 24.725-47.561 39.104-70.356.258 1.307.513 2.611.776 3.912a896.572 896.572 0 003.654 17.14l-68.108 157.548c-.059.624-.144 1.246-.195 1.868h116.941l2.59-6.799c.004.018.013.034.02.047.008-.009.017-.02.03-.029 1.599 3.399 3.175 6.803 4.845 10.171 3.895 7.927 8.013 15.751 12.263 23.501a438.6 438.6 0 01-24.326 13.994c-11.394 5.985-23.04 11.313-34.841 15.524-11.78 4.114-23.772 7.471-35.344 8.414-2.87.185-5.769.459-8.533.312-2.849.092-5.485-.321-8.19-.561-3.438-.558-6.71-1.394-9.792-2.499-1.594-.566-3.154-1.19-4.62-1.937a38 38 0 01-6.401-4.449 36.745 36.745 0 01-4.532-4.612zm238.301-195.71h-66.615l33.306-87.172 33.309 87.172zM199.576 206.405c6.587.064 13.169.216 19.74.45a854.1 854.1 0 0113.294.704v.016a882.873 882.873 0 0114.323 1.003c.666.051 1.332.105 1.997.156 3.776.299 7.583.633 11.385.985 3.615.339 7.228.674 10.839 1.073 4.569.488 9.072 1.014 13.408 1.576 21.69 2.71 43.309 6.236 64.75 10.679 21.47 4.304 42.767 9.442 63.789 15.456.91.255 1.819.529 2.729.785 3.439.974 6.862 1.982 10.278 3.014 1.768.532 3.536 1.067 5.304 1.616 1.937.604 3.875 1.23 5.808 1.852 2.107.682 4.212 1.36 6.311 2.058 2.574.853 5.142 1.709 7.704 2.59 8.056 2.764 16.082 5.633 24.033 8.657 6.974 2.651 13.867 5.475 20.72 8.382a688.724 688.724 0 01-37.933 58.731c-.964 1.338-1.969 2.644-2.939 3.977l-30.271-70.017a618.753 618.753 0 00-15.269-4.488c-21.024-6.011-42.321-11.149-63.786-15.458-21.441-4.44-43.06-7.965-64.75-10.675-14.125-1.835-32.848-3.669-47.855-4.752l-8.442 19.533c.055-.009.102-.02.157-.029.019.223.037.455.064.682 2.186 21.363 5.327 42.678 9.295 63.845 3.84 21.196 8.579 42.258 14.001 63.116 5.319 20.893 11.573 41.53 18.426 61.926.531 1.56 1.095 3.107 1.651 4.654H361.1c-2.552 2.487-5.078 5.004-7.655 7.46-19.201 18.219-39.214 35.55-60.205 51.372a510.543 510.543 0 01-16.549 12.164c-6.939-14.351-13.323-29.016-19.21-43.909a777.339 777.339 0 01-6.282-16.45l1.397-3.671c-.818.283-1.635.555-2.449.833a751.023 751.023 0 01-6.079-17.204 949.614 949.614 0 01-9.796-30.776 788.366 788.366 0 01-8.636-31.149 935.013 935.013 0 01-7.592-31.43 816.056 816.056 0 01-6.41-31.686c-1.309-6.995-2.495-14.017-3.623-21.038a700.177 700.177 0 01-.957-6.13c-.229-1.48-.481-2.949-.697-4.429-.013-.085-.024-.172-.037-.252-.026-.172-.046-.343-.068-.511a765.235 765.235 0 01-2.098-15.476c-.272-2.225-.5-4.454-.755-6.678-.36-3.108-.742-6.219-1.06-9.336-.025-.227-.042-.454-.063-.682a647.424 647.424 0 01-2.7-33.119zm3.001-93.637c1.543-10.336 3.43-20.61 6.196-30.449 2.69-9.85 6.062-19.397 10.464-28.048 4.419-8.589 9.765-16.4 16.303-21.99 6.586-5.392 14.14-8.771 22.631-9.181 8.473-.468 17.612 2.057 26.437 6.201 8.848 4.235 17.313 10.131 25.341 16.772 16.141 13.325 30.284 29.782 43.368 47.048 6.121 8.065 11.921 16.431 17.524 24.953a487.75 487.75 0 00-27.696 22.243c9.974-6.361 20.008-12.567 30.24-18.371 5.588 8.47 10.882 17.15 16.146 25.899-3.586-9.58-7.638-18.976-11.881-28.318.064-.033.128-.071.19-.107 11.717-6.609 23.645-12.77 35.845-18.158 12.196-5.374 24.551-10.231 37.124-13.914 12.556-3.58 25.358-6.208 37.834-6.444a90.994 90.994 0 019.181.22c9.097.694 17.698 2.898 24.582 7.288 4.611 2.857 8.385 6.626 11.47 10.913 2.205 3.121 3.836 6.709 5.143 10.494.507 1.474.979 2.97 1.393 4.492l.959 4.179c.24 1.432.39 2.912.597 4.356l.305 2.173.114 2.247.271 4.483c-.006 6.088-.249 12.238-1.153 18.468-1.635 12.447-4.831 24.943-8.766 37.272-5.663 17.476-13.001 34.579-21.304 51.286-7.973-3.718-16.023-7.242-24.11-10.628-14.189-5.885-28.589-11.159-43.107-16.002-.004 0-.008 0-.008-.005a975.14 975.14 0 00-9.327-3.051c-4.097-1.307-8.193-2.615-12.308-3.85-8.085-2.383-16.215-4.59-24.366-6.712l-20.017-46.313H264.554l-9.882 22.857c-.762-.051-1.52-.078-2.283-.129a699.493 699.493 0 00-13.73-.725 594.39 594.39 0 00-18.516-.515c-7.16-.076-14.332.009-21.504.176-.064-20.576 1.089-41.093 3.938-61.11zm174.581 358.737a828.043 828.043 0 0015.247-14.972 871.874 871.874 0 0041.848-45.237c12.533-14.819 24.637-30.032 36.183-45.685 4.909-6.642 9.745-13.352 14.425-20.179 14.217-20.911 27.597-42.473 39.396-65.022 1.151-2.194 2.304-4.385 3.421-6.596a600.865 600.865 0 0010.378-21.631c2.488-5.47 4.9-10.987 7.155-16.584 5.215-13.08 9.877-26.455 13.637-40.219 3.772-13.756 6.558-27.944 7.685-42.609.637-7.309.568-14.81.127-22.328l-.643-5.698-.344-2.837-.569-2.86c-.394-1.904-.734-3.799-1.19-5.698l-1.684-5.675a94.733 94.733 0 00-2.916-7.467c-2.169-4.909-4.85-9.67-8.326-13.988-5.213-6.408-11.652-11.912-18.87-15.594-7.2-3.747-14.901-5.898-22.438-6.83-7.558-.947-14.997-.86-22.212-.058-14.451 1.607-27.985 5.764-40.957 10.746-12.924 5.123-25.34 11.154-37.157 18.107-11.756 6.799-23.066 14.219-33.985 22.132-4.382-9.123-9.029-18.133-14.053-26.985-11.041-19.346-23.98-37.805-39.888-54.369-8.063-8.174-17.019-15.748-27.361-21.985C283.707 5.296 271.608.56 258.197.062c-13.384-.677-27.236 4.211-37.968 12.042-10.726 7.947-18.631 18.194-24.799 28.755-12.255 21.296-18.677 44.089-22.984 66.736-4.353 22.627-6.078 45.377-6.676 68.015-4.803.404-9.601.832-14.4 1.38-22.903 2.655-45.802 6.839-68.243 14.061a218.12 218.12 0 00-22.763 8.693h-.008c-1.34.6-2.67 1.222-4.006 1.848a171.364 171.364 0 00-6.257 3.079c-1.335.706-2.67 1.426-3.997 2.173-1.327.744-2.65 1.511-3.963 2.305-6.562 3.956-12.912 8.517-18.75 13.954a98.084 98.084 0 00-3.441 3.368l-3.324 3.52c-1.064 1.23-2.047 2.572-3.064 3.858-2.103 2.499-3.799 5.43-5.537 8.277-.165.245-.284.528-.436.789-.683 1.192-1.246 2.478-1.853 3.72-.339.785-.712 1.54-1.068 2.307-.356.767-.69 1.543-.954 2.358-.52 1.632-1.063 3.253-1.547 4.887-.483 1.633-.907 3.283-1.178 4.982a58.42 58.42 0 00-.2 20.184 69.7 69.7 0 00.98 4.846c.288 1.194.602 2.378.954 3.539a69.743 69.743 0 003.849 10.06c2.017 4.28 4.336 8.297 6.875 12.093a102.17 102.17 0 002.607 3.727 120.946 120.946 0 005.587 7.042 149.309 149.309 0 005.973 6.555c8.168 8.462 17.074 15.878 26.455 22.449a277.147 277.147 0 007.075 4.839 278.949 278.949 0 0014.505 8.955 307.274 307.274 0 007.41 4.141 339.639 339.639 0 0022.755 11.201 368.28 368.28 0 007.727 3.368 688.178 688.178 0 01-14.052-9.288c-4.629-3.15-9.198-6.378-13.666-9.73a336.981 336.981 0 01-13.23-10.185 272.149 272.149 0 01-12.568-10.855 350.996 350.996 0 01-5.977-5.695c-3.925-3.843-7.715-7.787-11.272-11.875a146.456 146.456 0 01-5.142-6.263 125.375 125.375 0 01-4.739-6.465 102.518 102.518 0 01-2.191-3.321c-2.12-3.344-4.027-6.77-5.655-10.249a72.882 72.882 0 01-3.989-10.582c-1.013-3.548-1.666-7.097-1.912-10.592a41.37 41.37 0 01.081-6.883 35.26 35.26 0 011.267-6.605 39.78 39.78 0 011.039-3.181c.648-1.723 1.45-3.393 2.336-5.024a46.319 46.319 0 014.395-6.667c2.15-2.709 4.608-5.25 7.317-7.617 7.219-6.311 16.01-11.449 25.408-15.604 9.41-4.166 19.457-7.333 29.681-10.053 24.379-6.125 49.719-9.237 75.339-10.445.467 13.932 1.433 27.816 2.811 41.646v.006a726.245 726.245 0 003.747 30.969c.051.334.106.664.152.994a807.115 807.115 0 002.175 14.27c.606 3.738 1.267 7.463 1.925 11.183-18.843 23.548-36.214 48.413-51.673 74.679-13.849 23.873-26.133 48.932-35.027 75.815-4.455 13.434-7.982 27.361-9.86 41.935-1.021 7.267-1.322 14.777-1.271 22.375.42 7.675 1.043 15.468 3.349 23.343 2.255 7.809 5.417 15.775 10.627 22.857 1.394 1.924 2.924 3.754 4.53 5.524 4.304 4.712 9.297 8.831 14.74 12.092 2.234 1.304 4.523 2.423 6.841 3.426 5.515 2.374 11.217 3.982 16.859 5.096 3.98.58 8.011 1.23 11.911 1.3 3.972.309 7.804.129 11.657 0 15.354-.776 29.707-4.249 43.445-8.703 5.151-1.692 10.186-3.582 15.172-5.563a335.036 335.036 0 0024.319-10.811 451.28 451.28 0 0026.738-14.69 492.087 492.087 0 0023.4-14.814c30.273-20.325 58.217-43.652 84.588-68.413zm269.42-109.627a79.9 79.9 0 00-1.149-4.583c-.145-.506-.306-1.003-.458-1.5-.302-.986-.602-1.975-.937-2.945-.201-.591-.421-1.17-.637-1.754a81.18 81.18 0 00-.979-2.564c-.249-.613-.504-1.212-.762-1.816a73.7 73.7 0 00-1.06-2.374c-.28-.609-.565-1.217-.856-1.824-.37-.749-.756-1.495-1.142-2.24-.313-.602-.617-1.206-.939-1.796-.399-.734-.815-1.449-1.23-2.169-.33-.576-.648-1.157-.991-1.728a119.293 119.293 0 00-2.026-3.263c-.055-.085-.106-.176-.166-.261 0 .004-.004.004-.004.009a128.765 128.765 0 00-2.744-4.111c-7.151-10.173-15.386-19.109-24.148-27.221-16.435-15.256-34.523-27.85-53.25-38.962-4.045 9.423-8.418 18.664-12.977 27.794 7.691 4.178 15.185 8.631 22.497 13.295a242.725 242.725 0 0125.821 18.646c8.056 6.732 15.645 13.911 21.978 21.769a95.199 95.199 0 013.606 4.779 84.474 84.474 0 016.038 9.794c.042.087.088.168.13.255a66.28 66.28 0 012.544 5.541c.637 1.569 1.23 3.147 1.721 4.732.322 1.099.606 2.196.844 3.293.474 2.191.767 4.393.882 6.593a38.92 38.92 0 01.038 3.293 40.23 40.23 0 01-.741 6.544 41.829 41.829 0 01-1.832 6.449 42.228 42.228 0 01-2.998 6.214c-2.352 4.046-5.391 7.889-8.892 11.467a76.566 76.566 0 01-2.709 2.628 81.04 81.04 0 01-2.861 2.53 96.223 96.223 0 01-6.11 4.788c-3.979 2.866-8.239 5.479-12.652 7.904a176.584 176.584 0 01-4.46 2.363c-1.179.604-2.34 1.233-3.531 1.812-1.344.647-2.718 1.235-4.082 1.852-6.049 2.727-12.258 5.183-18.6 7.412a351.298 351.298 0 01-7.814 2.648c-3.339 1.09-6.718 2.089-10.108 3.056a339.46 339.46 0 01-13.865 3.64 416.16 416.16 0 01-8.127 1.862 389.19 389.19 0 01-7.596 1.649l-29.973-69.333a889.792 889.792 0 01-33.816 42.52 870.589 870.589 0 01-45.207 48.555l8.312 21.816h119.508l-17.096-39.55c13.446-.776 26.896-2.294 40.287-4.784 8.416-1.491 16.757-3.524 25.027-6.065a234.03 234.03 0 008.246-2.708 205.75 205.75 0 004.085-1.523c4.087-1.564 8.145-3.274 12.141-5.196 5.336-2.567 10.567-5.499 15.622-8.938 9.994-6.888 19.472-16.036 25.551-28.205 6.049-12.115 7.532-26.967 4.647-40.089z" fill="#000"/></svg>
